frontend/svgs/biz059.svg

<?xml version="1.0" encoding="UTF-8"?> <svg width="100px" height="100px" viewBox="0 0 100 100" version="1.1" xmlns="http://www.w3.org/2000/svg" xmlns:xlink="http://www.w3.org/1999/xlink"> <g id="59.-Book" stroke="none" stroke-width="1" fill="none" fill-rule="evenodd"> <path d="M49.5757576,97.3834886 C49.5757576,91.5157844 44.8320493,86.7792734 38.9803885,86.7792734 L4.08806818,86.7792747 L4.08806818,8.94270835 L10.7878788,8.94270834 L10.7878788,79.5757576 L39.8806546,79.5757576 C45.2351121,79.5757576 49.5757576,83.9098172 49.5757576,89.278955 C49.5757576,83.9098172 53.916403,79.5757576 59.2708605,79.5757576 L88.3636364,79.5757576 L88.3636364,8.94270834 L95.063447,8.94270835 L95.063447,86.7792747 L60.1711267,86.7792734 C54.3194659,86.7792734 49.5757576,91.5157844 49.5757576,97.3834886 Z" id="Combined-Shape" stroke="#A4B8CE" stroke-width="4" fill="#A4B8CE" stroke-linecap="round" stroke-linejoin="round"></path> <path d="M49.5757576,89.278955 C49.5757576,83.9098172 45.2351121,79.5757576 39.8806546,79.5757576 L10.7878788,79.5757576 L10.7878788,2 L39.8879934,2 C45.2383978,2 49.5757576,6.34965654 49.5757576,11.6938381 C49.5757576,6.34965654 53.9131173,2 59.2635217,2 L88.3636364,2 L88.3636364,79.5757576 L59.2708605,79.5757576 C53.916403,79.5757576 49.5757576,83.9098172 49.5757576,89.278955 Z" id="Combined-Shape" fill="#C8D6E5"></path> </g> </svg>

<svg width="100" height="100" xmlns="http://www.w3.org/2000/svg"><g fill="none" fill-rule="evenodd"><path d="M49.576 97.383c0-5.867-4.744-10.604-10.596-10.604H4.088V8.943h6.7v70.633H39.88a9.693 9.693 0 019.695 9.703c0-5.37 4.34-9.703 9.695-9.703h29.093V8.943h6.7v77.836H60.17c-5.852 0-10.595 4.737-10.595 10.604z" stroke="#A4B8CE" stroke-width="4" fill="#A4B8CE" stroke-linecap="round" stroke-linejoin="round"/><path d="M49.576 89.279c0-5.37-4.34-9.703-9.695-9.703H10.788V2h29.1c5.35 0 9.688 4.35 9.688 9.694C49.576 6.35 53.913 2 59.264 2h29.1v77.576H59.27a9.693 9.693 0 00-9.695 9.703z" fill="#C8D6E5"/></g></svg>
